world_stage/static/flags/IRL/square.svg

<svg height="800" viewBox="0 0 799.99997 800" width="800" xmlns="http://www.w3.org/2000/svg"><g stroke-width="1.09018"><path d="m0 800h266.66607v-799.99998h-266.66607z" fill="#009b48"/><path d="m266.66607 800h266.66607v-799.99998h-266.66607z" fill="#fff"/><path d="m533.33303 800h266.66697v-799.99998h-266.66697z" fill="#ff7900"/></g></svg>

<?xml version="1.0" encoding="UTF-8" standalone="no"?>
<svg
   height="800"
   viewBox="0 0 799.99997 800"
   width="800"
   version="1.1"
   id="svg3"
   sodipodi:docname="rect copy.svg"
   inkscape:version="1.4 (e7c3feb1, 2024-10-09)"
   xmlns:inkscape="http://www.inkscape.org/namespaces/inkscape"
   xmlns:sodipodi="http://sodipodi.sourceforge.net/DTD/sodipodi-0.dtd"
   xmlns="http://www.w3.org/2000/svg"
   xmlns:svg="http://www.w3.org/2000/svg">
  <defs
     id="defs3" />
  <sodipodi:namedview
     id="namedview3"
     pagecolor="#ffffff"
     bordercolor="#000000"
     borderopacity="0.25"
     inkscape:showpageshadow="2"
     inkscape:pageopacity="0.0"
     inkscape:pagecheckerboard="0"
     inkscape:deskcolor="#d1d1d1"
     inkscape:current-layer="svg3" />
  <path
     d="M 0,800 H 266.66607 V 2e-5 H 0 Z"
     fill="#009b48"
     id="path1"
     style="stroke-width:1.09018" />
  <path
     d="M 266.66607,800 H 533.33214 V 2e-5 H 266.66607 Z"
     fill="#ffffff"
     id="path2"
     style="stroke-width:1.09018" />
  <path
     d="M 533.33303,800 H 800 V 2e-5 H 533.33303 Z"
     fill="#ff7900"
     id="path3"
     style="stroke-width:1.09018" />
</svg>
